img/svg/icon-font/file-add.svg

<svg width="22" height="22" viewBox="0 0 22 22" fill="none" xmlns="http://www.w3.org/2000/svg">
<g clip-path="url(#clip0)">
<path d="M15.0391 10.3984C11.8406 10.3984 9.23828 13.0007 9.23828 16.1992C9.23828 19.3977 11.8406 22 15.0391 22C18.2375 22 20.8398 19.3977 20.8398 16.1992C20.8398 13.0007 18.2375 10.3984 15.0391 10.3984ZM15.0391 20.2812C12.7882 20.2812 10.957 18.45 10.957 16.1992C10.957 13.9484 12.7882 12.1172 15.0391 12.1172C17.2899 12.1172 19.1211 13.9484 19.1211 16.1992C19.1211 18.45 17.2899 20.2812 15.0391 20.2812ZM17.6172 16.1992C17.6172 16.6739 17.2325 17.0586 16.7578 17.0586H15.8984V17.918C15.8984 18.3926 15.5137 18.7773 15.0391 18.7773C14.5644 18.7773 14.1797 18.3926 14.1797 17.918V17.0586H13.3203C12.8456 17.0586 12.4609 16.6739 12.4609 16.1992C12.4609 15.7245 12.8456 15.3398 13.3203 15.3398H14.1797V14.4805C14.1797 14.0058 14.5644 13.6211 15.0391 13.6211C15.5137 13.6211 15.8984 14.0058 15.8984 14.4805V15.3398H16.7578C17.2325 15.3398 17.6172 15.7245 17.6172 16.1992ZM8.89453 21.1406C8.89453 21.6153 8.50983 22 8.03516 22H4.59766C2.70216 22 1.16016 20.458 1.16016 18.5625V6.22426C1.16016 5.33199 1.50609 4.49174 2.13417 3.85812L4.97195 0.994995C5.59869 0.362717 6.46881 0 7.35924 0H15.1633C17.0586 0 18.6008 1.54201 18.6008 3.4375V7.99219C18.6008 8.46686 18.2159 8.85156 17.7414 8.85156C17.2667 8.85156 16.882 8.46686 16.882 7.99219V3.4375C16.882 2.48984 16.1109 1.71875 15.1633 1.71875H7.35924C6.92418 1.71875 6.49886 1.896 6.1927 2.205L3.35492 5.06796C3.21611 5.20795 3.10583 5.36874 3.02644 5.54297H5.41406C6.12489 5.54297 6.70312 4.96457 6.70312 4.25391C6.70312 3.77924 7.08783 3.39453 7.5625 3.39453C8.03717 3.39453 8.42188 3.77924 8.42188 4.25391C8.42188 5.9124 7.07256 7.26172 5.41406 7.26172H2.87891V18.5625C2.87891 19.5102 3.64999 20.2812 4.59766 20.2812H8.03516C8.50983 20.2812 8.89453 20.666 8.89453 21.1406Z" fill="#4C51CB"/>
</g>
<defs>
<clipPath id="clip0">
<rect width="22" height="22" fill="white"/>
</clipPath>
</defs>
</svg>

<svg width="22" height="22" fill="none" xmlns="http://www.w3.org/2000/svg"><g clip-path="url(#clip0)"><path d="M15.04 10.398A5.807 5.807 0 009.237 16.2a5.808 5.808 0 005.801 5.801c3.199 0 5.8-2.602 5.8-5.8 0-3.2-2.601-5.802-5.8-5.802zm0 9.883a4.087 4.087 0 01-4.083-4.082 4.087 4.087 0 014.082-4.082 4.087 4.087 0 014.082 4.082 4.087 4.087 0 01-4.082 4.082zm2.577-4.082a.86.86 0 01-.86.86h-.859v.859a.86.86 0 11-1.718 0v-.86h-.86a.86.86 0 110-1.718h.86v-.86a.86.86 0 111.718 0v.86h.86a.86.86 0 01.86.86zm-8.722 4.942a.86.86 0 01-.86.859H4.598a3.441 3.441 0 01-3.438-3.438V6.225c0-.892.346-1.732.974-2.366L4.972.995A3.383 3.383 0 017.359 0h7.804a3.441 3.441 0 013.438 3.438v4.554a.86.86 0 01-1.719 0V3.438a1.72 1.72 0 00-1.719-1.72H7.36c-.435 0-.86.178-1.166.487L3.355 5.068c-.139.14-.25.3-.329.475h2.388c.71 0 1.29-.578 1.29-1.29a.86.86 0 111.718 0 3.011 3.011 0 01-3.008 3.009H2.88v11.3a1.72 1.72 0 001.719 1.72h3.437a.86.86 0 01.86.859z" fill="#4C51CB"/></g><defs><clipPath id="clip0"><path fill="#fff" d="M0 0h22v22H0z"/></clipPath></defs></svg>
